svgs/regular/objects-align-bottom.svg

<svg xmlns="http://www.w3.org/2000/svg" viewBox="0 0 512 512"><!--! Font Awesome Pro 6.6.0 by @fontawesome - https://fontawesome.com License - https://fontawesome.com/license (Commercial License) Copyright 2024 Fonticons, Inc. --><path d="M24 512c-13.3 0-24-10.7-24-24s10.7-24 24-24l464 0c13.3 0 24 10.7 24 24s-10.7 24-24 24L24 512zM176 336l0-288-64 0 0 288 64 0zm-64 48c-26.5 0-48-21.5-48-48L64 48C64 21.5 85.5 0 112 0l64 0c26.5 0 48 21.5 48 48l0 288c0 26.5-21.5 48-48 48l-64 0zm288-48l0-160-64 0 0 160 64 0zm-64 48c-26.5 0-48-21.5-48-48l0-160c0-26.5 21.5-48 48-48l64 0c26.5 0 48 21.5 48 48l0 160c0 26.5-21.5 48-48 48l-64 0z"/></svg>

<svg xmlns="http://www.w3.org/2000/svg" viewBox="0 0 512 512"><!--! Font Awesome Pro 6.4.0 by @fontawesome - https://fontawesome.com License - https://fontawesome.com/license (Commercial License) Copyright 2023 Fonticons, Inc. --><path d="M24 512c-13.3 0-24-10.7-24-24s10.7-24 24-24H488c13.3 0 24 10.7 24 24s-10.7 24-24 24H24zM176 336V48H112V336h64zm-64 48c-26.5 0-48-21.5-48-48V48C64 21.5 85.5 0 112 0h64c26.5 0 48 21.5 48 48V336c0 26.5-21.5 48-48 48H112zm288-48V176H336V336h64zm-64 48c-26.5 0-48-21.5-48-48V176c0-26.5 21.5-48 48-48h64c26.5 0 48 21.5 48 48V336c0 26.5-21.5 48-48 48H336z"/></svg>
